source/images/icons/shortcut-zen.svg

<svg width="15" height="15" viewBox="0 0 15 15" xmlns="http://www.w3.org/2000/svg">
<path d="M14.669 7.16741H14.6726C14.7639 7.16741 14.851 7.1291 14.9129 7.06197C14.9758 6.99387 15.0069 6.90251 14.9987 6.81017C14.67 3.19425 11.8071 0.33046 8.19089 0.00105521C8.09921 -0.00614847 8.00687 0.0236486 7.93877 0.0868446C7.87066 0.149713 7.83267 0.238449 7.83366 0.331115C7.89063 5.13663 8.52456 7.10029 14.669 7.16741ZM14.669 7.83146C8.52456 7.89858 7.89096 9.86224 7.83398 14.6678C7.833 14.7604 7.87098 14.8492 7.93909 14.912C8 14.968 8.07957 14.9991 8.16142 14.9991C8.17125 14.9991 8.1814 14.9988 8.19122 14.9978C11.8075 14.6684 14.6703 11.8049 14.9987 8.1887C15.0069 8.09636 14.9761 8.005 14.9129 7.93689C14.8497 7.86879 14.7616 7.83506 14.669 7.83146ZM6.78716 0.00269245C3.18237 0.341593 0.328728 3.20473 0.00161512 6.81083C-0.00657088 6.90317 0.0242085 6.99452 0.0874045 7.06263C0.149291 7.12975 0.236717 7.16774 0.327746 7.16774H0.331675C6.45579 7.09734 7.08808 5.13466 7.1457 0.332425C7.14669 0.239759 7.10838 0.150695 7.04027 0.0878269C6.97151 0.0249584 6.8795 -0.005821 6.78716 0.00269245ZM0.331347 7.83113C0.229514 7.81967 0.149618 7.86813 0.0870771 7.93624C0.0242085 8.00435 -0.0068983 8.0957 0.0012877 8.18804C0.3284 11.7941 3.18237 14.6573 6.78716 14.9962C6.79731 14.9972 6.80779 14.9975 6.81794 14.9975C6.8998 14.9975 6.97904 14.9667 7.03994 14.9107C7.10805 14.8478 7.14636 14.7588 7.14538 14.6661C7.08775 9.86421 6.45579 7.90153 0.331347 7.83113Z"/>
</svg>

<svg viewBox="0 0 15 15" xmlns="http://www.w3.org/2000/svg"><path d="M14.67 7.17a.33.33 0 0 0 .33-.36 7.52 7.52 0 0 0-6.8-6.8.27.27 0 0 0-.26.08.33.33 0 0 0-.1.24c.05 4.8.68 6.77 6.83 6.84Zm0 .66c-6.15.07-6.78 2.03-6.84 6.84a.33.33 0 0 0 .36.33 7.52 7.52 0 0 0 6.8-6.81.33.33 0 0 0-.32-.36Zm-7.88-7.83a7.52 7.52 0 0 0-6.79 6.81.33.33 0 0 0 .33.36c6.13-.07 6.76-2.04 6.82-6.84a.33.33 0 0 0-.36-.33Zm-6.46 7.83c-.1-.01-.18.04-.24.1a.33.33 0 0 0-.09.26 7.52 7.52 0 0 0 6.82 6.8.33.33 0 0 0 .33-.32c-.06-4.8-.7-6.77-6.82-6.84Z"/></svg>
